X:1
T:Rameau's Enharmonic Modulation
T:Rameau's Enharmonic Modulation
T:"Hippolyte et Aricie", RCT 43, Act 2, "Trio des Parques", "Quelle soudaine horreur"
T:Jean-Philippe Rameau Analisis by S. Shchetnikov 
%%score 1 2 3 { 4 | 5 }
L:1/8
Q:1/4=80
M:4/4
K:Bb
V:1 treble nm="Swell"
V:2 treble nm="Swell"
V:3 bass nm="Swell"
V:4 treble nm="Piano"
V:5 bass 
V:1
 z8 | A2 A2 A4- | A3 A/^G/ G4- | ^G4 =G4 | GGGG ^F4- | ^F2 z2 =F4 | FFFF =E4 | F8 |] %8
V:2
 z8 | ^F2 F2 F4- | F3 ^F/^E/ E4- | ^E4 =E4 | =EEEE ^D4- | ^D2 z2 =D4 | DDDD ^C4 | D8 |] %8
V:3
 z4 D2 D2 | D4 D3 D/^C/ | ^C8 | =C4 CCCC | =B,8 | _B,4 B,B,B,B, | A,8 | ^G,8 |] %8
V:4
 z8 | z z/"""_D:" [A,^F]/"_=" [A,F]>"""_f♯:"[A,F] [A,F]3/2[^fa]/4A/4 [fa]3/2[FA]/4^C/4 | %2
"""_f♯:" [^FA]3/2[^fa]/4A/4 [fa]3/2[FA]/4^C/4"""_f♯:" [^E^G]3/2"_="[^e^g]/4G/4"""_f:" [eg]3/2[EG]/4C/4 | %3
"""_f:" [=C=F_A]/>=e/f/4g/4_a/4_b/4 [fc']3/2[FA]/4C/4"""_f:" [=EG]3/2"_="[eg]/4G/4"""_e:" [eg]3/2[EG]/4C/4 | %4
"""_e:" [=B,=EG]/>^d/=e/4^f/4g/4a/4 [e=b]3/2[EG]/4B,/4"""_e:" [^D^F]3/2"_="[df]/4F/4"""_e♭:" [df]3/2[DF]/4B,/4 | %5
"""_e♭:" [_B,_E_G]/>=d/_e/4f/4_g/4_a/4 [eb]3/2[EG]/4B,/4"""_e♭:" [DF]3/2"_="[df]/4F/4"""_d:" [df]3/2[DF]/4B,/4 | %6
"""_d:" [A,DF]/>^c/d/4=e/4f/4g/4 [da]3/2[DF]/4A,/4"""_d:" [^C=E]3/2[ce]/4E/4 [ce]3/2[CE]/4A,/4 | %7
 [=B,DF]4 [df=b]/4=B/4[dfb]/4B/4[dfb]/4B/4[dfb]/4B/4 [dfb]/4B/4[dfb]/4B/4[dfb]/4B/4[dfb]/4B/4 |] %8
V:5
 z8 | z z/ [D,,D,]/ [D,,D,]>[D,,D,] [D,,D,]>[D,D] [D,D]>[D,,D,] | %2
 [^F,,^F,]>[F,^C] [F,C]>[F,,F,]"^Enharmonic equality" [^C,,^C,]>[C,,C,] [C,,C,]>[C,,C,] | %3
 [=F,,=F,]3/2[F,_A,C]/4F/4 [F,A,C]>[F,,F,] [C,,C,]>[C,,C,] [C,,C,]>[C,,C,] | %4
 [=E,,=E,]3/2[E,G,=B,]/4=E/4 [E,G,B,]>[E,,E,]"^Enharmonic equality" [=B,,,=B,,]>[B,,,B,,] [B,,,B,,]>[B,,,B,,] | %5
 [_E,,_E,]3/2[E,_G,_B,]/4_E/4 [E,G,B,]>[E,,E,] [B,,,B,,]>[B,,,B,,] [B,,,B,,]>[B,,,B,,] | %6
 [D,,D,]3/2[D,F,A,]/4D/4 [D,F,A,]>[D,,D,] [A,,,A,,]>[A,,,A,,] [A,,,A,,]>[A,,,A,,] | %7
 [^G,,,^G,,]4 G,,/4^G,/4G,,/4G,/4G,,/4G,/4G,,/4G,/4 G,,/4G,/4G,,/4G,/4G,,/4G,/4G,,/4G,/4 |] %8

